icons/1_Primary/MxToolbox.svg

<svg xmlns="http://www.w3.org/2000/svg" width="1024" height="1024" fill="none">
   <g clip-path="url(#a)">
      <path fill="#F8C18C" d="M512 1024c282.77 0 512-229.23 512-512S794.77 0 512 0 0 229.23 0 512s229.23 512 512 512Z"/>
      <path fill="#fff" d="M199.391 330.3h167.34a28.174 28.174 0 0 1 2.65 4.11c10 20.28 20.25 40.48 30.33 60.75 9.42-21.61 18.75-43.27 28.26-64.85h183.12v45.36a179.498 179.498 0 0 0-67.72 70.2c-21.8 40.35-26.71 89.33-13.63 133.27a177.41 177.41 0 0 0 44 74.42h-111.22a75051.19 75051.19 0 0 1 0-145.48 75245.322 75245.322 0 0 0-62.82 114.43c-20.85-38.11-41.39-76.39-62.31-114.46-.14 48.5 0 97-.06 145.5h-137.56v-308.1c-.24-5.04-.57-10.08-.38-15.15Zm368.9 98.87a164.999 164.999 0 0 0 124.44 264.53h14.82a164.998 164.998 0 0 0 141.35-94.05 161.76 161.76 0 0 0 15.76-71.27c.29-35.57-11.94-71-33.44-99.25a165.017 165.017 0 0 0-58.07-48.06 165.011 165.011 0 0 0-146.771 0 165.005 165.005 0 0 0-58.069 48.06l-.02.04Zm204-33.65a151.872 151.872 0 0 1 77.956 111.238 151.873 151.873 0 0 1-101.351 166.146 151.882 151.882 0 0 1-181.605-69.974c-18.41-32.71-23.7-72.37-15.06-108.85a151.992 151.992 0 0 1 85.737-103.52 151.998 151.998 0 0 1 134.323 4.96Zm-100.78 132.36c-20.17 27.63-40.18 55.39-60.26 83.09h58.33c10-14.44 20.23-28.8 30.33-43.2 10.33 14.33 20.32 28.9 30.58 43.27 19.38-.13 38.77 0 58.16-.06a57134.169 57134.169 0 0 0-60.24-83.11c19.92-26.92 40.2-53.57 60.1-80.5h-58.08c-10.24 13.77-20.27 27.77-30.43 41.63-10.2-13.86-20.25-27.82-30.41-41.71h-58.27c20.05 26.91 40.28 53.62 60.19 80.59Z"/>
   </g>
   <defs>
      <clipPath id="a">
         <path fill="#fff" d="M0 0h1024v1024H0z"/>
      </clipPath>
   </defs>
</svg>

<svg width="1024" height="1024" viewBox="0 0 1024 1024" fill="none" xmlns="http://www.w3.org/2000/svg">
<g clip-path="url(#clip0_2_2850)">
<path d="M512 1024C794.77 1024 1024 794.77 1024 512C1024 229.23 794.77 0 512 0C229.23 0 0 229.23 0 512C0 794.77 229.23 1024 512 1024Z" fill="#F8C18C"/>
<path d="M199.391 330.3H366.731C367.732 331.59 368.618 332.966 369.381 334.41C379.381 354.69 389.631 374.89 399.711 395.16C409.131 373.55 418.461 351.89 427.971 330.31H611.091V375.67C582.47 392.371 559.032 416.668 543.371 445.87C521.571 486.22 516.661 535.2 529.741 579.14C538.046 607.195 553.162 632.761 573.741 653.56H462.521C462.474 605.067 462.474 556.573 462.521 508.08C441.547 546.207 420.607 584.35 399.701 622.51C378.851 584.4 358.311 546.12 337.391 508.05C337.251 556.55 337.391 605.05 337.331 653.55H199.771V345.45C199.531 340.41 199.201 335.37 199.391 330.3ZM568.291 429.17C550.097 453.169 538.818 481.69 535.677 511.642C532.536 541.594 537.653 571.835 550.473 599.086C563.292 626.338 583.326 649.561 608.402 666.239C633.479 682.917 662.642 692.414 692.731 693.7H707.551C737.422 692.304 766.353 682.816 791.25 666.25C816.147 649.685 836.074 626.664 848.901 599.65C859.516 577.404 864.906 553.027 864.661 528.38C864.951 492.81 852.721 457.38 831.221 429.13C815.831 408.844 795.956 392.395 773.151 381.07C750.345 369.746 725.228 363.853 699.766 363.853C674.303 363.853 649.186 369.746 626.38 381.07C603.575 392.395 583.7 408.844 568.311 429.13L568.291 429.17ZM772.291 395.52C793.027 406.739 810.867 422.631 824.398 441.938C837.929 461.246 846.779 483.438 850.247 506.758C853.716 530.078 851.708 553.885 844.383 576.295C837.057 598.705 824.615 619.101 808.041 635.869C791.468 652.638 771.218 665.317 748.896 672.904C726.573 680.491 702.791 682.777 679.432 679.582C656.073 676.386 633.779 667.795 614.315 654.491C594.85 641.187 578.751 623.534 567.291 602.93C548.881 570.22 543.591 530.56 552.231 494.08C557.628 471.406 568.168 450.278 583.034 432.328C597.901 414.378 616.696 400.087 637.968 390.56C659.239 381.033 682.416 376.525 705.707 377.385C728.998 378.246 751.78 384.45 772.291 395.52ZM671.511 527.88C651.341 555.51 631.331 583.27 611.251 610.97H669.581C679.581 596.53 689.811 582.17 699.911 567.77C710.241 582.1 720.231 596.67 730.491 611.04C749.871 610.91 769.261 611.04 788.651 610.98C768.597 583.26 748.517 555.557 728.411 527.87C748.331 500.95 768.611 474.3 788.511 447.37H730.431C720.191 461.14 710.161 475.14 700.001 489C689.801 475.14 679.751 461.18 669.591 447.29H611.321C631.371 474.2 651.601 500.91 671.511 527.88Z" fill="white"/>
</g>
<defs>
<clipPath id="clip0_2_2850">
<rect width="1024" height="1024" fill="white"/>
</clipPath>
</defs>
</svg>
